assets/icons/radio-filled.svg

<?xml version="1.0" encoding="UTF-8" standalone="no"?>
<svg
   viewBox="0 0 24 24"
   height="24"
   width="24"
   version="1.1"
   id="svg4"
   sodipodi:docname="radio-filled.svg"
   inkscape:version="1.2.2 (1:1.2.2+202212051551+b0a8486541)"
   xmlns:inkscape="http://www.inkscape.org/namespaces/inkscape"
   xmlns:sodipodi="http://sodipodi.sourceforge.net/DTD/sodipodi-0.dtd"
   xmlns="http://www.w3.org/2000/svg"
   xmlns:svg="http://www.w3.org/2000/svg">
  <defs
     id="defs8" />
  <sodipodi:namedview
     id="namedview6"
     pagecolor="#ffffff"
     bordercolor="#666666"
     borderopacity="1.0"
     inkscape:pageshadow="2"
     inkscape:pageopacity="0.0"
     inkscape:pagecheckerboard="0"
     showgrid="true"
     inkscape:snap-page="true"
     inkscape:zoom="33.927763"
     inkscape:cx="7.6338661"
     inkscape:cy="14.987726"
     inkscape:window-width="1850"
     inkscape:window-height="1016"
     inkscape:window-x="0"
     inkscape:window-y="0"
     inkscape:window-maximized="1"
     inkscape:current-layer="svg4"
     inkscape:showpageshadow="2"
     inkscape:deskcolor="#d1d1d1">
    <inkscape:grid
       type="xygrid"
       id="grid6" />
    <inkscape:grid
       type="xygrid"
       id="grid823"
       dotted="true"
       spacingx="0.5"
       spacingy="0.5"
       empspacing="10" />
  </sodipodi:namedview>
  <path
     id="path1652"
     style="color:#000000;fill:#808080;-inkscape-stroke:none"
     d="M 19.5 1.75 C 19.099036 1.75 18.768315 2.0714861 18.751953 2.46875 L 7.0214844 6.078125 A 1.5 1.25 0 0 0 6.5 6 A 1.5 1.25 0 0 0 5.0234375 7.0449219 C 4.0567701 7.1208577 3.347267 7.3207037 2.8339844 7.8339844 C 2.0881625 8.5798028 2 9.726203 2 11.5 L 2 17.5 C 2 19.273796 2.0881634 20.420194 2.8339844 21.166016 C 3.579806 21.911837 4.7262044 22 6.5 22 L 17.5 22 C 18.165173 22 18.741511 21.988424 19.242188 21.933594 C 19.57597 21.897044 19.87695 21.840974 20.146484 21.757812 C 20.550787 21.633068 20.886333 21.445695 21.166016 21.166016 C 21.445696 20.886333 21.633066 20.550789 21.757812 20.146484 C 21.840982 19.876952 21.897044 19.57597 21.933594 19.242188 C 21.988424 18.741511 22 18.165172 22 17.5 L 22 11.5 C 22 10.834827 21.988424 10.258488 21.933594 9.7578125 C 21.897044 9.4240285 21.840984 9.1230512 21.757812 8.8535156 C 21.633066 8.449213 21.445696 8.1136663 21.166016 7.8339844 C 20.886333 7.5543024 20.550787 7.3669354 20.146484 7.2421875 C 19.87695 7.1590227 19.57597 7.1029582 19.242188 7.0664062 C 18.741511 7.0115794 18.165173 7 17.5 7 L 7.96875 7 A 1.5 1.25 0 0 0 7.6171875 6.4179688 L 18.900391 2.9453125 L 18.900391 2.9472656 C 19.037718 3.1303786 19.255819 3.25 19.5 3.25 C 19.911252 3.25 20.25 2.9112508 20.25 2.5 C 20.25 2.0887492 19.911252 1.75 19.5 1.75 z M 6 9 L 18 9 C 19.099346 9 20 9.9006541 20 11 L 20 12 C 20 13.099346 19.099346 14 18 14 L 6 14 C 4.9006541 14 4 13.099346 4 12 L 4 11 C 4 9.9006541 4.9006541 9 6 9 z M 6 10 C 5.4373543 10 5 10.437356 5 11 L 5 12 C 5 12.562644 5.4373543 13 6 13 L 15.25 13 L 15.25 11 L 15.75 11 L 15.75 13 L 18 13 C 18.562644 13 19 12.562644 19 12 L 19 11 C 19 10.437356 18.562644 10 18 10 L 17 10 L 17 11 L 16 11 L 16 10 L 15 10 L 15 11 L 14 11 L 14 10 L 13 10 L 13 11 L 12 11 L 12 10 L 11 10 L 11 11 L 10 11 L 10 10 L 9 10 L 9 11 L 8 11 L 8 10 L 7 10 L 7 11 L 6 11 L 6 10 z M 5.0742188 15.074219 L 5.9257812 15.074219 L 5.9257812 15.925781 L 5.0742188 15.925781 L 5.0742188 15.074219 z M 7.0742188 15.074219 L 7.9257812 15.074219 L 7.9257812 15.925781 L 7.0742188 15.925781 L 7.0742188 15.074219 z M 9.0742188 15.074219 L 9.9257812 15.074219 L 9.9257812 15.925781 L 9.0742188 15.925781 L 9.0742188 15.074219 z M 11.074219 15.074219 L 11.925781 15.074219 L 11.925781 15.925781 L 11.074219 15.925781 L 11.074219 15.074219 z M 16.5 15.125 C 17.807229 15.125 18.875 16.192771 18.875 17.5 C 18.875 18.807229 17.807229 19.875 16.5 19.875 C 15.192771 19.875 14.125 18.807229 14.125 17.5 C 14.125 16.192771 15.192771 15.125 16.5 15.125 z M 16.5 15.875 C 15.5981 15.875 14.875 16.5981 14.875 17.5 C 14.875 18.4019 15.5981 19.125 16.5 19.125 C 17.4019 19.125 18.125 18.4019 18.125 17.5 C 18.125 16.5981 17.4019 15.875 16.5 15.875 z M 16.5 16.75 C 16.911252 16.75 17.25 17.088748 17.25 17.5 C 17.25 17.911252 16.911252 18.25 16.5 18.25 C 16.088748 18.25 15.75 17.911252 15.75 17.5 C 15.75 17.088748 16.088748 16.75 16.5 16.75 z M 5.0742188 17.074219 L 5.9257812 17.074219 L 5.9257812 17.925781 L 5.0742188 17.925781 L 5.0742188 17.074219 z M 7.0742188 17.074219 L 7.9257812 17.074219 L 7.9257812 17.925781 L 7.0742188 17.925781 L 7.0742188 17.074219 z M 9.0742188 17.074219 L 9.9257812 17.074219 L 9.9257812 17.925781 L 9.0742188 17.925781 L 9.0742188 17.074219 z M 11.074219 17.074219 L 11.925781 17.074219 L 11.925781 17.925781 L 11.074219 17.925781 L 11.074219 17.074219 z M 5.0742188 19.074219 L 5.9257812 19.074219 L 5.9257812 19.925781 L 5.0742188 19.925781 L 5.0742188 19.074219 z M 7.0742188 19.074219 L 7.9257812 19.074219 L 7.9257812 19.925781 L 7.0742188 19.925781 L 7.0742188 19.074219 z M 9.0742188 19.074219 L 9.9257812 19.074219 L 9.9257812 19.925781 L 9.0742188 19.925781 L 9.0742188 19.074219 z M 11.074219 19.074219 L 11.925781 19.074219 L 11.925781 19.925781 L 11.074219 19.925781 L 11.074219 19.074219 z " />
</svg>

<svg height="24" width="24" xmlns="http://www.w3.org/2000/svg"><path style="color:#000;fill:gray;-inkscape-stroke:none" d="M19.5 1.75a.752.752 0 0 0-.748.719l-11.73 3.61A1.5 1.25 0 0 0 6.5 6a1.5 1.25 0 0 0-1.477 1.045c-.966.076-1.676.276-2.189.789C2.088 8.58 2 9.726 2 11.5v6c0 1.774.088 2.92.834 3.666S4.726 22 6.5 22h11c.665 0 1.242-.012 1.742-.066.334-.037.635-.093.904-.176.405-.125.74-.312 1.02-.592.28-.28.467-.615.592-1.02.083-.269.139-.57.176-.904.054-.5.066-1.077.066-1.742v-6c0-.665-.012-1.242-.066-1.742a4.877 4.877 0 0 0-.176-.904 2.393 2.393 0 0 0-.592-1.02 2.393 2.393 0 0 0-1.02-.592 4.912 4.912 0 0 0-.904-.176C18.742 7.012 18.165 7 17.5 7H7.969a1.5 1.25 0 0 0-.352-.582L18.9 2.945v.002a.75.75 0 0 0 .6.303c.411 0 .75-.339.75-.75a.754.754 0 0 0-.75-.75zM6 9h12c1.1 0 2 .9 2 2v1c0 1.1-.9 2-2 2H6c-1.1 0-2-.9-2-2v-1c0-1.1.9-2 2-2zm0 1c-.563 0-1 .437-1 1v1c0 .563.437 1 1 1h9.25v-2h.5v2H18c.563 0 1-.437 1-1v-1c0-.563-.437-1-1-1h-1v1h-1v-1h-1v1h-1v-1h-1v1h-1v-1h-1v1h-1v-1H9v1H8v-1H7v1H6v-1zm-.926 5.074h.852v.852h-.852v-.852zm2 0h.852v.852h-.852v-.852zm2 0h.852v.852h-.852v-.852zm2 0h.852v.852h-.852v-.852zm5.426.051a2.38 2.38 0 0 1 2.375 2.375 2.38 2.38 0 0 1-2.375 2.375 2.38 2.38 0 0 1-2.375-2.375 2.38 2.38 0 0 1 2.375-2.375zm0 .75a1.62 1.62 0 0 0-1.625 1.625 1.62 1.62 0 0 0 1.625 1.625 1.62 1.62 0 0 0 1.625-1.625 1.62 1.62 0 0 0-1.625-1.625zm0 .875c.411 0 .75.339.75.75s-.339.75-.75.75a.754.754 0 0 1-.75-.75c0-.411.339-.75.75-.75zm-11.426.324h.852v.852h-.852v-.852zm2 0h.852v.852h-.852v-.852zm2 0h.852v.852h-.852v-.852zm2 0h.852v.852h-.852v-.852zm-6 2h.852v.852h-.852v-.852zm2 0h.852v.852h-.852v-.852zm2 0h.852v.852h-.852v-.852zm2 0h.852v.852h-.852v-.852z"/></svg>
